svg/fluentui-system-icons/ic_fluent_calligraphy_pen_20_filled.svg

<svg width="20" height="20" viewBox="0 0 20 20" fill="none" xmlns="http://www.w3.org/2000/svg">
<path d="M6 2.5C6 2.22386 5.77614 2 5.5 2C5.22386 2 5 2.22386 5 2.5V4.5C5 5.32843 5.67157 6 6.5 6L6.69982 6L5.24066 9.08045C4.88669 9.82771 4.9251 10.7016 5.34326 11.415L8.80571 17.3215C8.96604 17.595 9.21288 17.7999 9.5 17.9096V10.8662C9.2011 10.6933 9 10.3701 9 10C9 9.44772 9.44772 9 10 9C10.5523 9 11 9.44772 11 10C11 10.3701 10.7989 10.6933 10.5 10.8662V17.9017C10.7785 17.7902 11.0176 17.5886 11.1741 17.3215L14.6366 11.415C15.0547 10.7016 15.0931 9.82771 14.7392 9.08045L13.28 6L13.5 6C14.3284 6 15 5.32843 15 4.5V2.5C15 2.22386 14.7761 2 14.5 2C14.2239 2 14 2.22386 14 2.5V4.5C14 4.77614 13.7761 5 13.5 5H6.5C6.22386 5 6 4.77614 6 4.5V2.5Z" fill="#212121"/>
</svg>

<svg xmlns="http://www.w3.org/2000/svg" width="20" height="20"><path d="M6 2.5a.5.5 0 0 0-1 0v2A1.5 1.5 0 0 0 6.5 6h.2L5.24 9.08a2.5 2.5 0 0 0 .103 2.335l3.463 5.907c.16.273.407.478.694.588v-7.044a1 1 0 1 1 1 0v7.036c.278-.112.518-.313.674-.58l3.463-5.907a2.5 2.5 0 0 0 .102-2.335L13.28 6h.22A1.5 1.5 0 0 0 15 4.5v-2a.5.5 0 0 0-1 0v2a.5.5 0 0 1-.5.5h-7a.5.5 0 0 1-.5-.5v-2Z"/></svg>
